X: 1
T: String Quartet in D Major opus 76 no 5 mvt 1
C: Franz Joseph Haydn
%%abc-version 2.0
%%abcx-abcm2ps-target-version 5.9.1 (29 Sep 2008)
%%abc-creator hum2abc beta
%%abcx-conversion-date 2021/02/14 14:38:11
%%abc-copyright Copyright (c) 1994, 2000 Center for Computer Assisted Research in the Humanities
%%abc-edited-by Frances Bennion
%%abcx-initial-encoding-date 1997/04/15
%%gracespace 0 6 6
%%humdrum-veritas 2212281132
%%humdrum-veritas-data 1887178723
%%linebreak <none>
%%barnumbers 0
L: 1/16
M: 6/8
N: Derived from op76n5-01.krn
Q: "Allegretto"
%%staves [1 2 3 4]
V: 1
V: 2
V: 3 clef=alto
V: 4 clef=bass
K: D
[V:1](3:2:2z8z A2[I:setbarnb1]|
[V:2]z8 z2z2 |
[V:3]z8 z2z2 |
[V:4]z8 z2z2 |
[V:1]d2>c2d2 e2c2A2 |
[V:2][F2A,2]z2[F2A,2] [A,6G6] |
[V:3]D2z2D2 C4E2 |
[V:4]D,2z2D,2 D,6- |
[V:1]d2e2f2 g4f2 |
[V:2][F2A,2]G2A2 G4A2 |
[V:3]A,4D2 D6- |
[V:4]D,2C,2=C,2 B,,2B,2A,2 |
[V:1]e2>f2e2 b2g2e2 |
[V:2]B6 E6- |
[V:3]D6 B,4DB, |
[V:4]G,8- G,2^G,2 |
[V:1]dcecdB A2B2c2 |
[V:2]E2z2^G2 A2G2=G2 |
[V:3]A,2z2B,D C2D2E2 |
[V:4]A,2z2E,2 A,,2z4 |
[V:1]d2>c2d2 e2c2A2 |
[V:2][F2A,2]z2[F2A,2] [A,6G6] |
[V:3]F2z2D2 C4E2 |
[V:4]D,,2z2D,2 D,6- |
[V:1]d2e2f2 g4f2 |
[V:2][F2A,2]G2A2 G4A2 |
[V:3]A,4D2 D6- |
[V:4]D,2C,2=C,2 B,,2B,2A,2 |
[V:1]e2>f2e2 b2c'2d'2 |
[V:2]B6 ^E6 |
[V:3]D12- |
[V:4]G,6 ^G,6 |
[V:1]d2>e2c2 d2z2A2 |
[V:2]F2>G2E2 F2z4 |
[V:3]D2A,2G,2 F,2z4 |
[V:4]A,4A,,2 D,2z4 |
[V:1]d2>c2d2 e2dcBA |
[V:2][A,2F2]z2[A,2F2] [A,6G6] |
[V:3]D2z2D2 C4E2 |
[V:4]D,2z2D,2 D,6- |
[V:1]d2e2f2 g4f2 |
[V:2]F2G2A2 G4A2 |
[V:3]A,4D2 D6- |
[V:4]D,2C,2=C,2 B,,2B,2A,2 |
[V:1]e3g/f/e^a c'b=agfe |
[V:2]B6 E6- |
[V:3]D6 B,6 |
[V:4]G,8- G,2^G,2 |
[V:1]dcecdB A2B2c2 |
[V:2]E2z2^G2 A2G2=G2 |
[V:3]A,2z2B,D C2D2E2 |
[V:4]A,2z2E,2 A,,2z4 |
[V:1]d2>c2d2 e2dcBA |
[V:2][F2A,2]z2[F2A,2] [G6-A,6] |
[V:3]D2z2A,2 C4E2 |
[V:4]D,,2z2D,2 D,6- |
[V:1]d2e2f2 g4f2 |
[V:2][F2A,2]G2A2 G4A2 |
[V:3]A,4D2 D6- |
[V:4]D,2C,2=C,2 B,,2B,2A,2 |
[V:1]e3g/f/e2 b2g2^e2 |
[V:2]B12- |
[V:3]D12- |
[V:4]G,6 G,,6 |
[V:1]f2dBc^A B4d2 |
[V:2]B2FDEC D4z2 |
[V:3]D2B,2^A,C B,4z2 |
[V:4]F,,4F,,2 B,,4z2 |
[V:1]D2>E2D2 D2G2B2 |
[V:2]=C4C2 B,2z4 |
[V:3]A,4A,2 G,2z4 |
[V:4]F,4F,2 G,2z4 |
[V:1]B,2>=C2B,2 B,2E2g2 |
[V:2]A,4A,2 G,2z2B2 |
[V:3]F,4F,2 G,2G2G2 |
[V:4]^D,4D,2 E,4=D,2 |
[V:1]A2>g2f2 f2e2d2 |
[V:2]E2A2A2 B6 |
[V:3]G2E2D2 D2E2E2 |
[V:4]C,4D,2 G,4^G,2 |
[V:1]dcecB^G A2B2c2 |
[V:2]E2z2^G2 A2G2=G2 |
[V:3]E2z2B,D C2D2E2 |
[V:4]A,2z2E,2 A,,2z4 |
[V:1]d2>c2d2 e2dcBA |
[V:2][F2A,2]z2[A,2F2] [A,6G6] |
[V:3]D2z2A,2 C4E2 |
[V:4]D,,2z2D,2 D,6- |
[V:1]dcde=f^f g4f2 |
[V:2][A,2F2]>G2A2 G4A2 |
[V:3]A,4D2 D6- |
[V:4]D,2C,2=C,2 B,,2B,2A,2 |
[V:1]e3g/f/eb Bbagfe |
[V:2]B6 E6- |
[V:3]D6 B,6 |
[V:4]G,8- G,2^G,2 |
[V:1]dcecdB AaBaca |
[V:2]E2z2^G2 A2G2=G2 |
[V:3]A,2z2B,D C2D2E2 |
[V:4]A,2z2E,2 A,,2z4 |
[V:1]dacada fedcBA |
[V:2]F2E2F2 [G6A,6] |
[V:3]D2z2A,2 C4E2 |
[V:4]D,,2z2D,2 D,6- |
[V:1]d2e2f2 g4^g2 |
[V:2][A,2F2]G2A2 G4D2 |
[V:3]A,4D2 D6- |
[V:4]D,2C,2=C,2 B,,4_B,,2 |
[V:1]afd'afd A2B2c2 |
[V:2]F6 G6 |
[V:3]D4>C4 D2E2 |
[V:4]A,,12 |
[V:1]d2>A2f2 d2z2z2 |
[V:2]F2z2F2 F2z4 |
[V:3]D2z2A,2 F,2z4 |
[V:4]D,2z2D,,2 D,,2z2A,,2 |
[V:1]z2z2D2 DCE4- |
[V:2]z12 |
[V:3]z12 |
[V:4]D,2>C,2D,2 E,2C,2A,,2 |
[V:1]EA,B,CD=F FEG4- |
[V:2]z12 |
[V:3]z4A,2 _B,3A,/B,/=CB, |
[V:4]=F,2>E,2F,2 G,2E,2=C,2 |
[V:1]G=CDE=FA AD2<_B2G |
[V:2]=C6 D3E/=F/G2 |
[V:3]A,4z8 |
[V:4]A,2>G,2A,2 _B,2G,2E,2 |
[V:1]=FE2<=c2A GF2<d2_B |
[V:2]z2E2A2 z2=F2_B2 |
[V:3]z12 |
[V:4]=C2A,2=F,2 D2_B,2G,2 |
[V:1]AGge=c_B ABcde=f |
[V:2]z2_B2B2 A2A2A2 |
[V:3]z2=C2G2 C4D2 |
[V:4]E,6 =F,4D,2 |
[V:1]g2_b2e2 =f2z2z2 |
[V:2]d2_B2G2 AB=cde=f |
[V:3]G,2D2=C_B, A,GA_BGA |
[V:4]_B,,2G,,2=C,2 =F,,4z2 |
[V:1]ga_b=c'd'e' =f'2z2z2 |
[V:2]e2z2_B2 AB=cde=f |
[V:3]_B2z2G2 =FGABGA |
[V:4]=C,2z2C,2 =F,2z4 |
[V:1]g'a'_b'=c''d''e'' =f''2z2z2 |
[V:2]e2z2_b2 a2z2=C2 |
[V:3]_B2z2G2 A2z4 |
[V:4]=C,2z2=C2 =F2z4 |
[V:1]z12 |
[V:2]=F2>E2F2 G2E2=C2 |
[V:3]z2z2=F,2 >E,2G,4- |
[V:4]z12 |
[V:1]z12 |
[V:2]A2>G2A2 _B2G2E2 |
[V:3]G,=C,D,E,=F,A, A,G,_B,4- |
[V:4]z12 |
[V:1]z2z2d2 g2>f2g2 |
[V:2]=c2A2F2 D4G2- |
[V:3]B,A,=C4 _B,2z4 |
[V:4]z6 G,6 |
[V:1]a2f2d2 _b2>a2b2 |
[V:2]GFA_B=cA D4B2- |
[V:3]z2=c2F2 G4z2 |
[V:4]D,6 G,6 |
[V:1]=c'2a2=f2 d'2-d'c'/_b/a/g/f/_e/ |
[V:2]BA=cd_ec =F2zDF_B |
[V:3]z2_e2A2 _B=FFFFF |
[V:4]=F,6 _B,,/D,/B,,/D,/B,,/D,/B,,/D,/B,,/D,/B,,/D,/ |
[V:1]d2z=f_bd' _e'2-e'd'/=c'/b/a/g/f/ |
[V:2]d/=c/_B/A/G/=F/_E/D/=C/_B,/A,/B,/ C2zFAc |
[V:3]=FFFFFF F[_E=C][EC][EC][EC][EC] |
[V:4]_B,,/D,/B,,/D,/B,,/D,/B,,/D,/B,,/D,/B,,/D,/ A,,/=F,/A,,/F,/A,,/F,/A,,/F,/A,,/F,/A,,/F,/ |
[V:1]_e2z=fa=c' d'2-d'c'/_b/a/g/f/e/ |
[V:2]_e/d/=c/_B/A/G/=F/_E/D/=C/_B,/A,/ B,2zDFB |
[V:3][_E=C][CE][EC][EC][EC][EC] [_B,D][B,D][B,D][B,D][B,D][DB,] |
[V:4]A,,/=F,/A,,/F,/A,,/F,/A,,/F,/A,,/F,/A,,/F,/ _B,,/F,/B,,/F,/B,,/F,/B,,/F,/B,,/F,/B,,/F,/ |
[V:1]d2z=f_bd' _e'2-e'd'/=c'/b/a/g/f/ |
[V:2]d/=c/_B/A/G/=F/_E/D/=C/_B,/A,/B,/ C2zFAc |
[V:3][D_B,][DB,][DB,][DB,][DB,][B,D] [_E,=C][_EC][EC][EC][EC][EC] |
[V:4]_B,,/=F,/B,,/F,/B,,/F,/B,,/F,/B,,/F,/B,,/F,/ A,,/F,/A,,/F,/A,,/F,/A,,/F,/A,,/F,/A,,/F,/ |
[V:1]_e2z=fa=c' (3:2:2=f'2-f'//_e'/d'/c'/_b/a/g/f/|
[V:2]_e/d/=c/_B/A/G/=F/_E/D/=C/_B,/A,/ B,2zBd=f |
[V:3][_E=C][EC][EC][EC][EC][EC] [D_B,][B,D][DB,][DB,][DB,][B,D] |
[V:4]A,,/=F,/A,,/F,/A,,/F,/A,,/F,/A,,/F,/A,,/F,/ _A,,/F,/A,,/F,/A,,/F,/A,,/F,/A,,/F,/A,,/F,/ |
[V:1]_e2g'4 <z4z2 |
[V:2][_E2_B2g2][g2B2E2]z8 |
[V:3][_E2_B,2][E2B,2]z8 |
[V:4]G,,2_E,,2z8 |
[V:1]=c'2>b2c'2 _e'2d'2c'2 |
[V:2]=c2>d2c2 g2=f2_e2 |
[V:3]G2>_A2G2 _E2=F2G2 |
[V:4]_E2>=F2E2 =C2D2E2 |
[V:1]_b2z2z2 a2z2z2 |
[V:2]d2z4 =c2z4 |
[V:3]=F2z4 _e2z2F2 |
[V:4]=F2z4 =F,2z4 |
[V:1]z12 |
[V:2]z8 z2=F2 |
[V:3]_B2>A2B2 =c2A=FAc |
[V:4]z2z2_B,3 A,/B,/=C/B,/A,/G,/=F,/_E,/D,/=C,/ |
[V:1]z4z4 z2A2 |
[V:2]d2>c2d2 e2cAce |
[V:3]d2=F2F2 G6 |
[V:4]_B,,2z2D3 C/D/E/D/C/_B,/A,/G,/=F,/E,/ |
[V:1]=f2>e2f2 g2e=ceg |
[V:2]=f2A2A2 _B6 |
[V:3]A2z2=F3 E/F/G/F/E/D/=C/_B,/A,/G,/ |
[V:4]D,2z8 z2 |
[V:1]aa/_b/=c'/b/a/g/=f/e/d/=c/ _B2z2z2 |
[V:2]=c2z2z3 g/a/_b/a/g/=f/e/d/c/_B/ |
[V:3]=F,2z2A2 G6 |
[V:4]z4=F2 E6- |
[V:1]z=f/g/a/g/f/e/d/=c/_B/A/ G2z2z2 |
[V:2]A2z2z3 e/=f/g/f/e/d/c/_B/A/G/ |
[V:3]=F6 E6 |
[V:4]E4<D4 C4 |
[V:1]z=F/G/A/G/F/E/D/=C/_B,/A,/ ^G,2F2F2 |
[V:2]=FF/G/A/G/F/E/D/=C/_B,/A,/ ^G,2D2D2 |
[V:3]D=F/G/A/G/F/E/D/=C/_B,/A,/ ^G,6 |
[V:4]D=F,/G,/A,/G,/F,/E,/D,/=C,/_B,,/A,,/ ^G,,6 |
[V:1]EC/D/E/D/C/B,/A,G =FF/G/A/G/F/E/Dd |
[V:2]C2z2E2 =F2z2A2 |
[V:3]A,2z2C2 D2z2=F2 |
[V:4]A,,12- |
[V:1]cc/d/e/d/c/B/A/c/e/g/ =ff/g/a/g/f/e/d/f/a/d'/ |
[V:2]G2z2c2 d2z2=f2 |
[V:3]E2z2E2 =F2z2D2 |
[V:4]A,,12- |
[V:1]c'2A2A2 A2z2A2 |
[V:2]e2A2A2 A2z4 |
[V:3]A2A,2A,2 A,2z4 |
[V:4]A,,2A,,2A,,2 A,,2z4 |
[V:1]d2>c2d2 e2c2A2 |
[V:2][F2A,2]z2[A,2F2] [G6A,6] |
[V:3]D2z2D2 C4E2 |
[V:4]D,,2z2D,2 D,6- |
[V:1]d2e2f2 g4f2 |
[V:2]F2G2A2 G4A2 |
[V:3]A,4D2 D6- |
[V:4]D,2C,2=C,2 B,,2B,2A,2 |
[V:1]e3g/f/e^a c'b=agfe |
[V:2]B6 E6- |
[V:3]D6 B,6 |
[V:4]G,8- G,2^G,2 |
[V:1]dcecdB A2B2c2 |
[V:2]E2z2^G2 A2G2=G2 |
[V:3]A,2z2B,D C2D2E2 |
[V:4]A,2z2E,2 A,,2z4 |
[V:1]d/D/C/D/E/F/G/A/B/c/d/^d/ e2cecA |
[V:2][F2A,2]z4 [A,6G6] |
[V:3]D2z4 C4E2 |
[V:4]D,,2z4 D,6- |
[V:1]ddeeff g4f2 |
[V:2]FFGGAA G4A2 |
[V:3]A,A,A,A,DD D6- |
[V:4]D,D,C,C,=C,C, B,,2B,2A,2 |
[V:1]e/f/g/f/e/f/g/f/e/f/g/a/ b2g2^e2 |
[V:2]B12- |
[V:3]D12- |
[V:4]G,6 G,,6 |
[V:1]f2dBc^A B4d2 |
[V:2]B2FDEC D4z2 |
[V:3]D2B,2^A,C B,4z2 |
[V:4]F,,4F,,2 B,,4z2 |
[V:1](3:2:2D2-D//E/D/E/D/E/D/E/D2 G2B2|
[V:2]=C4C2 B,2z4 |
[V:3]A,4A,2 G,2z4 |
[V:4]F,4F,2 G,2z4 |
[V:1](3:2:2B,2-B,//=C/B,/C/B,/C/B,/C/B,2 E2g2|
[V:2]A,4A,2 G,2z2B2 |
[V:3]F,4F,2 G,2G2G2 |
[V:4]^D,4D,2 E,4=D,2 |
[V:1]A/B/c/d/e/f/g/a/gf febged |
[V:2]E2A2A2 B6 |
[V:3]G2E2D2 D2E2E2 |
[V:4]C,4D,2 G,4^G,2 |
[V:1]dcecB^G A2B2c2 |
[V:2]E2z2^G2 A2G2=G2 |
[V:3]E2z2B,D C2D2E2 |
[V:4]A,2z2E,2 A,,2z4 |
[V:1]d2>c2d2 e2dcBA |
[V:2][A,2F2]z2[F2A,2] [A,6G6] |
[V:3]D2z2A,2 C4E2 |
[V:4]D,,2z2D,2 D,6- |
[V:1]zdzezf g4^g2 |
[V:2][A,2F2]G2A2 G4D2 |
[V:3]A,4D2 D6- |
[V:4]D,2C,2=C,2 B,,4_B,,2 |
[V:1]afd'afd A2B2c2 |
[V:2]F6 G6 |
[V:3]D4>C4 D2E2 |
[V:4]A,,12 |
[V:1]dBfdBF DB,^G,DB,G, |
[V:2]F6 ^G,6 |
[V:3]D12 |
[V:4]B,,12 |
[V:1]A,CEGce gfag(3bge |
[V:2]G,12 |
[V:3]C12 |
[V:4]A,,12- |
[V:1]d6 c4z2 |
[V:2]G8- G2A2 |
[V:3]E8- E2z2 |
[V:4]A,,8- A,,2z2 |
[V:1]z4z4 z2a2 |
[V:2]d2>c2d2 e2c2A2 |
[V:3]FAFAFA GAGAGA |
[V:4]z12 |
[V:1]d'2>c'2d'2 e'2c'2a2 |
[V:2]f2z8 A2 |
[V:3]FAFAFA GAGAGA |
[V:4]z12 |
[V:1]f'4z4 z2a2 |
[V:2]d2>c2d2 e2c2A2 |
[V:3]FAFAFA GAGAGA |
[V:4]D4z2 A,4z2 |
[V:1]d'2>c'2d'2 e'2c'2a2 |
[V:2]f2z8 A2 |
[V:3]FAFAFA GAGAGA |
[V:4]D,4z2 A,,4z2 |
[V:1]f'4z4 z2ag |
[V:2]d2>c2d2 e2c2A2 |
[V:3]FAFAFA GAGAGA |
[V:4]D,,4z6 A,,2 |
[V:1]fgfe2<d2 ce4- |
[V:2]f2z8 z2 |
[V:3]D2>E2F2 G2E2C2 |
[V:4]D,2>C,2D,2 E,2C,2A,,2 |
[V:1]eABcdf2 eg4- |
[V:2]z12 |
[V:3]A2>G2A2 B2G2E2 |
[V:4]F,2>E,2F,2 G,2E,2C,2 |
[V:1]gcdefa2 gb4- |
[V:2]z12 |
[V:3]c2>B2c2 d4GF |
[V:4]A,2>G,2A,2 B,2G,2E,2 |
[V:1]beabag fedfed |
[V:2]z8 z2E2 |
[V:3]E6 F4^G2 |
[V:4]C,4C2 D2B,2^G,2 |
[V:1]c4z6 z2 |
[V:2]A2>^G2A2 B2G2E2 |
[V:3]A2z2A,2 >^G,2B,4- |
[V:4]A,,4z2 E,,4z2 |
[V:1]z12 |
[V:2]c2>B2c2 d2B2^G2 |
[V:3]B,E,F,^G,A,C2 B,D4- |
[V:4]A,,4F,2 B,,6 |
[V:1]z4<z4 z2A2 |
[V:2]e2c2A2 g2e2c2 |
[V:3]DCEDCB, A,B,CDEG |
[V:4]C,4z8 |
[V:1]d2>c2d2 e2c2A2 |
[V:2]dAFAFD2 CE4- |
[V:3]F4z2 A,6 |
[V:4]z12 |
[V:1]f2>e2f2 g2e2c2 |
[V:2]EA,B,CDF2 EG4- |
[V:3]D,4B,2 E,6 |
[V:4]z12 |
[V:1]a2f2d2 ^d2b2a2 |
[V:2]GFAB=cA FE^DB,DF |
[V:3]F,4A,2 B,4B,2 |
[V:4]z12 |
[V:1]gagfgb agfe^df |
[V:2]G4z8 |
[V:3]E2>^D2E2 F2D2B,2 |
[V:4]z12 |
[V:1]b=c'babe c'bagfc' |
[V:2]z12 |
[V:3]G2>F2G2 A2F2D2 |
[V:4]z8 z2D,2 |
[V:1]b4z6 d2 |
[V:2]d4g2 fgab=c'f |
[V:3]B=cBABd cBAGFA |
[V:4]G,2>F,2G,2 A,2F,2D,2 |
[V:1]g2>f2g2 a2f2d2 |
[V:2]g4z4 =c2A2 |
[V:3]ded=cBA GFAGFE |
[V:4]B,2>A,2G,B, D2D,2D,2 |
[V:1]b2>^a2b2 c'2a2f2 |
[V:2]B4z4 e2^A2 |
[V:3]DGBcdB B^AcBA^G |
[V:4]G,2G,,2G,,2 F,,6 |
[V:1]d'2>c'2d'2 e'2c'2a2 |
[V:2]B4z4 g2e2 |
[V:3]FBdefd dcedcB |
[V:4]B,,6 A,,4G,2 |
[V:1]f'4z4 z2a2 |
[V:2]d2>c2d2 e2c2A2 |
[V:3]A4z2 E2>F2E2 |
[V:4]F,A,F,A,F,A, G,A,G,A,G,A, |
[V:1]d'2>c'2d'2 e'2c'2a2 |
[V:2]a4z6 A2 |
[V:3]FAFAFA GAGAGA |
[V:4]F,4z8 |
[V:1]f'4z4 z2a2 |
[V:2]d2>c2d2 e2c2A2 |
[V:3]F4z2 E2>F2E2 |
[V:4]F,A,F,A,F,A, G,A,G,A,G,A, |
[V:1]d'2>c'2d'2 f'2d'2^g2 |
[V:2]abagfe d6 |
[V:3]D2>E2DC B,6 |
[V:4]F,G,F,E,D,C, B,,4E,2 |
[V:1]a8 g2e2 |
[V:2]cdefgf g2e2e2 |
[V:3]A,B,CDE^D E2C2AG |
[V:4]A,,12- |
[V:1]d4z6 A2 |
[V:2]d2>c2d2 e2c2A2 |
[V:3]FGFEFD2 CE4- |
[V:4]A,,12- |
[V:1]f2>e2f2 g2e2c2 |
[V:2]f2z8 z2 |
[V:3]EDF4- FEG4- |
[V:4]A,,12- |
[V:1]a2f2^d2 b2gea2 |
[V:2]z4>f4 g2e2 |
[V:3]GFAGFE ^D2E2C2 |
[V:4]A,,12- |
[V:1]fdg2ec f2dBe2 |
[V:2]f2d2e2 c2d2B2 |
[V:3]D2B2c2 A2B2^G2 |
[V:4]A,,12- |
[V:1]cAcAdA eAfAgA |
[V:2]E4F2 C2D2E2 |
[V:3]G4F2 E2D2C2 |
[V:4]A,,12 |
[V:1]f2>e2dc BAGFED |
[V:2]FAFAFA FAFAFA |
[V:3]DA,DA,DA, DA,DA,DA, |
[V:4]D,2D2z8 |
[V:1]C2e4 <z4z2 |
[V:2]EAEAEA GAGAGA |
[V:3]CA,CA,CA, CA,CA,CA, |
[V:4]G,2>F,2E,D, C,B,,A,,G,,F,,E,, |
[V:1]f2>e2dc BAGFED |
[V:2]FAFAFA FAFAFA |
[V:3]DA,DA,DA, DA,DA,DA, |
[V:4]D,,2D,2z8 |
[V:1]C2e4 <z4z2 |
[V:2]EAEAEA GAGAGA |
[V:3]CA,CA,CA, CA,CA,CA, |
[V:4]G,2>F,2E,D, C,B,,A,,G,,F,,E,, |
[V:1]a2>g2fe d=cBAGF |
[V:2]FAFAFA FAFAFA |
[V:3]=CA,CA,CA, CA,CA,CA, |
[V:4]D,,2D,2z8 |
[V:1]G2b2z2 E2g2z2 |
[V:2]G2g2z2 G2e2z2 |
[V:3]B,4z8 |
[V:4]G,,4z8 |
[V:1]F2a2z2 A2c'2z2 |
[V:2]D2f2z2 C2e2z2 |
[V:3]A,4z2 G4z2 |
[V:4]A,,4z2 A,,4z2 |
[V:1]f'2>e'2d'c' bagfed |
[V:2]D2f2z8 |
[V:3]FA,FA,FA, FA,FA,FA, |
[V:4]D,,A,,D,,A,,D,,A,, D,,A,,D,,A,,D,,A,, |
[V:1]c2g'4 <z4z2 |
[V:2]g2>f2ed cBAGFE |
[V:3]EA,EA,EA, GA,GA,GA, |
[V:4]C,,A,,C,,A,,C,,A,, C,,A,,C,,A,,C,,A,, |
[V:1]f'2>e'2d'c' bagfed |
[V:2]D2f2z8 |
[V:3]FA,FA,FA, FA,FA,FA, |
[V:4]D,,A,,D,,A,,D,,A,, D,,A,,D,,A,,D,,A,, |
[V:1]c2g'4 <z4z2 |
[V:2]g2>f2ed cBAGFE |
[V:3]EA,EA,EA, GA,GA,GA, |
[V:4]C,,A,,C,,A,,C,,A,, C,,A,,C,,A,,C,,A,, |
[V:1]a'2>g'2f'e' d'=c'bagf |
[V:2]D2a2z8 |
[V:3]FDFDFD FDFDFD |
[V:4]=C,,A,,C,,A,,C,,A,, C,,A,,C,,A,,C,,A,, |
[V:1]g2g'2z2 E2g2z2 |
[V:2]D2d2z2 G2e2z2 |
[V:3]B,4z8 |
[V:4]B,,4z8 |
[V:1]F2a2z2 E2c'2z2 |
[V:2]D2f2z2 C2e2z2 |
[V:3]A,4z2 G4z2 |
[V:4]A,,4z2 A,,4z2 |
[V:1]D2d'4 <z4z2 |
[V:2]d'2>c'2ba gfedcB |
[V:3]D,2>E,2F,G, A,B,CDEF |
[V:4]D,2D,,2z8 |
[V:1]g2>f2ed cBAGFE |
[V:2]A2e'2z8 |
[V:3]G2C,2z8 |
[V:4]A,,2>B,,2C,D, E,F,G,A,B,C |
[V:1]D2f4 <z4z2 |
[V:2]d'2>c'2ba gfedcB |
[V:3]D,2>E,2F,G, A,B,CDEF |
[V:4]D2D,,2z8 |
[V:1]g2>f2ed cBAGFE |
[V:2]A2e'2z8 |
[V:3]G2C,2z8 |
[V:4]A,,2>B,,2C,D, E,F,G,A,B,C |
[V:1]D2F2A2 d2f2a2 |
[V:2]A,2D2F2 A2d2f2 |
[V:3]F2D2A2 F2D2A,2 |
[V:4]D2A,2F,2 D,2A,,2F,,2 |
[V:1]d'4z2 [f4A4D4]z2 |
[V:2]a4z2 [D4f4A4]z2 |
[V:3]F,4z2 [D4D,4A,4]z2 |
[V:4]D,,4z2 D,,4z2 |
[V:1][f4A4D4]z6 z2 |]
[V:2][f4A4D4]z8 |]
[V:3][D4A,4D,4]z8 |]
[V:4]D,,4z8 |]

